!!!OTL: 932. Beim Pfeifenmachen (Huppenlied).
!!!ARE: Europa, Mitteleuropa, Deutschland, Elberfeld
!!!SCT: K0932
!!!YEM: Copyright 1995, estate of Helmut Schaffrath.
**kern	**text
*clefG2	*
*M2/4	*
*k[f#]	*
*G:	*
=1	=1
{8dd	Pip-
8dd	-ken,
8ee	Pip-
8ee	-ken,
=2	=2
4dd	Sa-
8b}	-pe!
{8cc	De
=3	=3
8dd	Möl-
8dd	-ler
8ee	ſoot
8ee	o'm
=4	=4
4dd	Da-
4b}	-ke.
=5	=5
{8dd	Pip-
8dd	-ken,
8dd	Pip-
8ee	-ken,
=6	=6
8dd	Oh-
8cc	-ligs-
8b	-krut,
8cc}	dat
=7	=7
{8dd	Kätʒ-
8dd	-ken
8dd	liep
8ee	der
=8	=8
8dd	Döarn
8cc	e-
8b	-rus,
8cc}	on
=9	=9
{8dd	äs
8dd	dat
8dd	Kätʒken
8ee	.
=10	=10
8dd	wederkohm,
8cc	.
8b}	.
{8dd	da
=11	=11
8ee	wor
8dd	dat
8cc	Pip-
8b	-ken
=12	=12
4dd	fä-
8b}	-dig,
{8ee	ſo
=13	=13
!LO:TX:a:t=(gedehnt)	!
4dd	fä-
8b	-dig,
8ee	ſo
=14	=14
4dd	fä-
8b	-dig.
8r}	.
==	==
!!!AGN: Kinder - Lied, Pflanzen
!!!ONB: ESAC (Essen Associative Code) Database: KINDER
!!!AMT: simple duple
!!!AIN: vox
!!!EED: Helmut Schaffrath
!!!EEV: 1.0
!!Aus Elberfeld: Erk II. 3. 28.
!!Text daher entlehnt bei Simrock 54.
!!!GTL: VI. Das Kind im Verkehr mit der Natur. B. Verkehr mit der Pflanzenwelt.
!!!URL-scan: https://archive.org/details/DeutschesKinderliedUndKinderspiel/page/189/mode/1up
!!!ENC: Anna Maria Matuszewska
!!!EEV: 2024/30/08
*-	*-
